!!!COM:	la Rue, Pierre de
!!!CDT:	~1452///-1518/11/20
!!!OPR:	Missa Tandernaken
!!!ONM:	1
!!!OTL:	Kyrie
!!!AGN:	Mass; Kyrie
!!!SCT:	Rue1030a
!!!SCA:	Rue1030a
!!!voices-OPR:	4
!!!voices:	4
**kern	**kern	**kern	**kern
*staff4	*staff3	*staff2	*staff1
*Ivox	*Ivox	*Ivox	*Ivox
*I"Bassus	*I"Tenor	*I"Contra	*I"Discantus
*I'B	*I'T	*I'C	*I'D
*>[A,B,C]	*>[A,B,C]	*>[A,B,C]	*>[A,B,C]
*>A	*>A	*>A	*>A
*clefF4	*clefGv2	*clefGv2	*clefG2
*k[b-]	*k[b-]	*k[b-]	*k[]
*M2/1	*M2/1	*M2/1	*M2/1
*met(C|)	*met(C|)	*met(C|)	*met(C|)
!!section: Kyrie I
!!!OMD: Kyrie I
=1-	=1-	=1-	=1-
0D	0r	0d	0a
=2	=2	=2	=2
1E-	1r	2B-\	1g
.	.	2c\	.
1D	[1A	2d\	1f
.	.	[2A/	.
=3	=3	=3	=3
0C	0A]	2A/]	0e
.	.	4G/	.
.	.	4F/	.
.	.	1E	.
=4	=4	=4	=4
2.BB-/	1B-	1F	2.d/
4C/	.	.	4e/
2D\	1A	1r	2f/
[2C/	.	.	[2e/
=5	=5	=5	=5
2C/]	0G	1r	2e/]
4BB-/	.	.	1g
4AA/	.	.	.
1GG	.	2r	.
.	.	[2d\	4f/
.	.	.	4e/
=6	=6	=6	=6
2r	0F	2d\]	1d
1D	.	4c\	.
.	.	4B-\	.
.	.	1A	2r
4C/	.	.	[2a/
4BB-/	.	.	.
=7	=7	=7	=7
1AA	1F	2r	2a/]
.	.	2.c\	4g/
.	.	.	4f/
2r	[1A	.	2e/
.	.	4B-\	.
[2F\	.	[2A/	2d/
=8	=8	=8	=8
2F\]	1A]	4A/]	2f/
.	.	4G/	.
4E\	.	1F	2g/
4D\	.	.	.
1C	1A	.	1a
.	.	2E/	.
=9	=9	=9	=9
0BB-	0d	0F	0b-
=10	=10	=10	=10
1C	1c	1E	1a
1D	1A	1F	[1a
=11	=11	=11	=11
0GG	0B-	1G	2a/]
.	.	.	4g/
.	.	.	4f/
.	.	2r	1g
.	.	2d\	.
=12	=12	=12	=12
2r	[0A	2e\	0a
2.D\	.	2.f\	.
4E\	.	4e\	.
[2F\	.	4d\	.
.	.	4c\	.
=13	=13	=13	=13
4F\]	0A]	2d\	2r
4E\	.	.	.
4D\	.	4c\	2.a/
4C/	.	4B-\	.
2D\	.	2.A/	.
.	.	.	4b\
4C/	.	.	[2cc\
4BB-/	.	4B-\	.
=14	=14	=14	=14
[0AAl	[0Al	[0cl	4cc\]
.	.	.	4b\
.	.	.	4a/
.	.	.	4g/
.	.	.	2a/
.	.	.	4g/
.	.	.	4f/
=15	=15	=15	=15
0AA]	0A]	0c]	0el
!!LO:LB:i:g=z
=16||	=16||	=16||	=16||
*>B	*>B	*>B	*>B
*clefF4	*clefGv2	*clefGv2	*clefG2
*k[b-]	*k[b-]	*k[b-]	*k[]
*M2/1	*M2/1	*M2/1	*M2/1
*met(C|)	*met(C|)	*met(C|)	*met(C|)
!!section: Christe
!!!OMD: Christe
1r	0r	1d	0r
1D	.	[1f	.
=17	=17	=17	=17
1.F	1r	2f\]	1a
.	.	4e\	.
.	.	4d\	.
.	1A	2.c\	[1cc
4E\	.	.	.
4D\	.	4d\	.
=18	=18	=18	=18
2.C/	0c	1e	2cc\]
.	.	.	4b\
4D\	.	.	4a/
2E\	.	2r	2g/
2F\	.	[2A/	2a/
=19	=19	=19	=19
2.C/	1c	4A/]	1e
.	.	4B-\	.
.	.	2.c\	.
4BB-/	.	.	.
2C/	[1A	.	2r
.	.	4B-\	.
[2D\	.	4A/	[2f/
.	.	4G/	.
=20	=20	=20	=20
2D\]	1A]	1F	2f/]
4C/	.	.	4e/
4BB-/	.	.	4d/
2AA/	1A	2r	2c/
[2D\	.	[2F/	2d/
=21	=21	=21	=21
4D\]	0F	4F/]	2A/
4E\	.	4G/	.
2F\	.	2.A/	2a/
1D	.	.	2f/
.	.	4G/	.
.	.	4F/	2a/
.	.	4E/	.
=22	=22	=22	=22
1r	1F	1D	2f/
.	.	.	2a/
2r	[1G	2E/	1g
2E\	.	2C/	.
=23	=23	=23	=23
2C/	1G]	2E/	2r
2E\	.	2C/	1g
2C/	1G	2E/	.
2E\	.	2C/	2g/
=24	=24	=24	=24
2D\	0A	2F/	2.f/
2F\	.	2D/	.
.	.	.	4g/
2D\	.	2F/	2a/
2F\	.	2D/	2f/
=25	=25	=25	=25
1C	1G	1E	2g/
.	.	.	2e/
1D	1F	2D/	2f/
.	.	[2d\	2d/
=26	=26	=26	=26
1r	0E	4d\]	0g
.	.	4Bni\	.
.	.	2.e\	.
1G	.	.	.
.	.	4Bni\	.
.	.	2c#i\	.
=27	=27	=27	=27
2A\	0D	1d	[0fl
2F\	.	.	.
1B-	.	1d	.
=28	=28	=28	=28
0Al	0Dl	0dl	0f]
!!LO:LB:i:g=z
=29||	=29||	=29||	=29||
*>C	*>C	*>C	*>C
*clefF4	*clefGv2	*clefGv2	*clefG2
*k[b-]	*k[b-]	*k[b-]	*k[]
*M2/1	*M2/1	*M2/1	*M2/1
*met(C|)	*met(C|)	*met(C|)	*met(C|)
!!section: Kyrie II
!!!OMD: Kyrie II
0AA	2.A/	2.c\	1.a
.	4B-\	4d\	.
.	2c\	2e\	.
.	[2c\	[2e\	4g/
.	.	.	4f/
=30	=30	=30	=30
1AA	4c\]	4e\]	1e
.	4B-\	4d\	.
.	4A/	4c\	.
.	4G/	4B-\	.
2.D\	1F	[1A	2.f/
4E\	.	.	4g/
=31	=31	=31	=31
2F\	1r	1A]	2a/
2.F\	.	.	2.a/
.	[1F	1A	.
4E\	.	.	4g/
4D\	.	.	4f/
4C/	.	.	4e/
=32	=32	=32	=32
1BB-	1F]	2B-\	0d
.	.	1d	.
2.BB-/	1F	.	.
.	.	4c\	.
4C/	.	4B-\	.
=33	=33	=33	=33
2D\	0F	1A	1r
2.D\	.	.	.
.	.	2r	1a
4C/	.	.	.
4BB-/	.	2c\	.
4AA/	.	.	.
=34	=34	=34	=34
1GG	1G	2B-\	2.b-\
.	.	2d\	.
.	.	.	4a/
2C/	1r	2e\	2g/
[2D\	.	[2f\	4f/
.	.	.	4e/
=35	=35	=35	=35
4D\]	1r	4f\]	1d
4E\	.	4e\	.
2F\	.	1d	.
2G\	2r	.	1e
2E\	2G/	2c\	.
=36	=36	=36	=36
2F\	2F/	1d	1d
2D\	2A/	.	.
2G\	2B-\	2e\	1r
2F\	[2c\	[2f\	.
=37	=37	=37	=37
1D	4c\]	4f\]	1r
.	4B-\	4e\	.
.	1A	1d	.
1E	.	.	2r
.	2G/	2c#i\	2g/
=38	=38	=38	=38
1D	1A	2.d\	2f/
.	.	.	2a/
.	.	4c\	.
2r	2d\	4B-\	2b-i\
.	.	4A/	.
[2A\	2c\	2A/	[2cc\
=39	=39	=39	=39
2A\]	1A	1c	4cc\]
.	.	.	4b-i\
2F\	.	.	1a
2D\	1B-	2F/	.
2E\	.	2G/	2g/
=40	=40	=40	=40
2F\	[0Al	2D/	[0al
2C/	.	2E/	.
1D	.	1F	.
=41	=41	=41	=41
0AAl	0A]	0El	0a]
==	==	==	==
*-	*-	*-	*-
!!!RDF**kern: l=long note in original notation
!!!RDF**kern: i=editorial accidental
!!!ENC:	Chris Gage 05-24-2013
!!!END:	2013/08/04/
!!!EED:	Jesse Rodin
!!!EEV:	2013/08/05/
!!!ONB:	Translated from MusicXML and edited on 2013/08/05/ by Craig Sapp
!!muse2ps: T^@{OPR}^u^@{ONM}{. }@{OTL}^C^@{COM}^i2I150v85,85,85,150Q16
